app/images/drinkicon.svg

<?xml version="1.0" encoding="UTF-8" standalone="no"?>
<svg width="88px" height="93px" viewBox="0 0 88 93" version="1.1" xmlns="http://www.w3.org/2000/svg" xmlns:xlink="http://www.w3.org/1999/xlink" xmlns:sketch="http://www.bohemiancoding.com/sketch/ns">
    <!-- Generator: Sketch 3.3.1 (12002) - http://www.bohemiancoding.com/sketch -->
    <title>Fill 1</title>
    <desc>Created with Sketch.</desc>
    <defs></defs>
    <g id="Page-1" stroke="none" stroke-width="1" fill="none" fill-rule="evenodd" sketch:type="MSPage">
        <g id="Serve" sketch:type="MSArtboardGroup" transform="translate(-90.000000, -1574.000000)" fill="#888888">
            <g id="Nav-unit-Copy" sketch:type="MSLayerGroup" transform="translate(-218.000000, 1481.000000)">
                <g id="Nav-unit" sketch:type="MSShapeGroup">
                    <path d="M381.076527,145.605956 C381.513796,142.915745 381.801579,142.600935 381.856314,139.764561 C381.878086,139.574197 381.929141,139.321763 381.932821,139.065479 C381.262504,124.919499 364.334857,116.812672 345.261338,116.644332 C326.184139,116.812672 309.264005,124.919499 308.579122,139.065479 C308.597214,139.321763 308.655629,139.574197 308.670195,139.826784 C309.234874,165.16501 325.382733,185.5 345.257811,185.5 C356.140648,185.5 365.894279,179.369516 372.594535,169.69603 C374.98112,172.422743 378.442328,174.168523 382.351692,174.168523 C389.565878,174.168523 395.420878,165.856853 395.420878,158.602663 C395.420724,151.359561 389.569404,145.470421 382.355525,145.470421 C381.914576,145.470421 381.506437,145.565604 381.076527,145.605956 Z M368.954708,148.845083 C363.099708,152.194024 354.57034,154.422801 345.101118,154.411866 C335.620857,154.426651 327.087809,152.194024 321.225603,148.845083 C315.283057,145.452093 312.481127,141.290868 312.532182,137.608788 C312.4776,133.893904 315.293943,129.736066 321.225603,126.346927 C327.087809,122.990747 335.620857,120.769209 345.101118,120.783687 C354.57034,120.765359 363.099708,122.990747 368.954708,126.346927 C374.897254,129.739763 377.713597,133.893904 377.659014,137.608788 C377.713597,141.290868 374.897254,145.452093 368.954708,148.845083 L368.954708,148.845083 Z M382.355525,167.050021 C379.586405,167.046171 377.356513,165.121115 376.678837,162.559046 C377.622524,160.498609 378.456894,155.894277 379.167381,153.654257 C380.107388,153.050357 381.153187,152.603863 382.355525,152.589231 C385.649155,152.603863 388.327049,155.294074 388.334408,158.602663 C388.323369,161.91849 385.649155,167.046171 382.355525,167.050021 Z M365.974466,127.397476 C360.851724,124.469308 353.386247,122.525925 345.097438,122.533317 C336.801271,122.525925 329.328587,124.469308 324.198486,127.397476 C319.010277,130.369383 316.543658,134.010956 316.587507,137.261173 C316.547337,140.485514 318.999391,144.127395 324.198486,147.099149 C324.198486,147.099149 331.452688,131.844248 343.100747,143.332976 C354.745279,154.821858 348.835697,131.185518 358.17383,140.331805 C367.511963,149.47455 373.596637,137.261173 373.596637,137.261173 C373.64386,134.007414 371.18092,130.369383 365.974466,127.397476 Z M336.251004,100.342733 C336.717404,100.723308 337.20573,101.001463 337.653886,101.294249 C338.524745,101.872582 339.490051,102.436129 340.142276,103.131515 C340.481114,103.475588 340.76169,103.863557 341.009609,104.218565 C341.253542,104.580813 341.461291,104.924886 341.59238,105.283591 C341.851185,105.98637 341.807489,106.656189 341.668887,107.424733 C341.40303,108.991237 340.448303,110.740714 339.508449,112.662228 L339.664989,112.848896 C340.729033,112.471863 341.621665,111.831307 342.42307,111.044435 C343.210064,110.246628 343.88774,109.262153 344.230258,108.02124 C344.583662,106.809898 344.3615,105.298223 343.654693,104.196541 C342.977017,103.05466 341.912973,102.384841 340.878367,101.993331 C340.357384,101.777399 339.825363,101.627233 339.380887,101.440565 C338.921692,101.242961 338.495461,100.983135 338.131172,100.653693 C337.384195,100.013291 337.049037,98.9664389 337.136429,98.3625391 C337.16556,98.058818 337.220295,97.8062305 337.322407,97.4695498 C337.435251,97.1510431 337.624601,96.7887956 337.868841,96.4226977 C338.346127,95.6797207 338.991146,94.9185698 339.639538,94.0365156 L339.530221,93.8167337 C338.954503,93.8496933 338.415428,94.003556 337.905331,94.223184 C337.384195,94.4352651 336.899702,94.7354438 336.451547,95.1197157 C336.003391,95.5113804 335.588046,95.9982274 335.300111,96.6204552 C335.008648,97.2352902 334.895805,98.0330972 335.117966,98.7358758 C335.336601,99.4386544 335.784756,99.9693962 336.251004,100.342733 Z M345.880752,104.855425 C346.241515,105.100619 346.587559,105.254328 346.890061,105.437454 C347.480344,105.792309 348.114324,106.205998 348.460368,106.718412 C348.832017,107.238064 349.054178,107.735847 349.167175,108.098094 C349.254568,108.489759 349.181741,108.775306 349.134365,109.199776 C349.083462,109.609769 348.941334,110.133118 348.766396,110.715147 C348.584251,111.304262 348.351051,111.922793 348.150661,112.665924 L348.311034,112.848896 C349.101554,112.706122 349.757459,112.332786 350.347743,111.842242 C350.930667,111.344614 351.437084,110.674795 351.692056,109.796437 C351.958067,108.925318 351.775922,107.798069 351.233015,107.01474 C350.726597,106.195063 349.932398,105.770438 349.196306,105.572681 C348.828337,105.463021 348.453009,105.389709 348.165226,105.287288 C347.866405,105.18117 347.593188,105.020069 347.374553,104.796898 C346.900946,104.368578 346.842685,103.596338 346.999378,103.358536 C347.061166,103.230394 347.086771,103.157082 347.115902,102.992438 C347.163278,102.83149 347.246991,102.622797 347.360141,102.388538 C347.600547,101.905387 347.946745,101.36371 348.28175,100.65015 L348.172433,100.430522 C347.753561,100.371842 347.371027,100.434065 346.999378,100.543879 C346.62037,100.646454 346.270646,100.829426 345.946373,101.085556 C345.618421,101.34184 345.312394,101.678521 345.097438,102.136104 C344.871597,102.575206 344.791411,103.190041 344.977235,103.720783 C345.166739,104.258764 345.531028,104.621165 345.880752,104.855425 Z" id="Fill-1"></path>
                </g>
            </g>
        </g>
    </g>
</svg>

<?xml version="1.0" encoding="utf-8"?>
<!-- Generator: Adobe Illustrator 16.0.0, SVG Export Plug-In . SVG Version: 6.00 Build 0)  -->
<!DOCTYPE svg PUBLIC "-//W3C//DTD SVG 1.0//EN" "http://www.w3.org/TR/2001/REC-SVG-20010904/DTD/svg10.dtd">
<svg version="1.0" id="Layer_1" xmlns:sketch="http://www.bohemiancoding.com/sketch/ns"
	 xmlns="http://www.w3.org/2000/svg" xmlns:xlink="http://www.w3.org/1999/xlink" x="0px" y="0px" width="88px" height="93px"
	 viewBox="0 0 88 93" enable-background="new 0 0 88 93" xml:space="preserve">
<title>Fill 1</title>
<desc>Created with Sketch.</desc>
<g id="Page-1" sketch:type="MSPage">
	<g id="Serve" transform="translate(-90.000000, -1574.000000)" sketch:type="MSArtboardGroup">
		<g id="Nav-unit-Copy" transform="translate(-218.000000, 1481.000000)" sketch:type="MSLayerGroup">
			<g id="Nav-unit" sketch:type="MSShapeGroup">
				<path id="Fill-1" fill="#888888" d="M381.076,145.605c0.438-2.689,0.726-3.004,0.78-5.841c0.021-0.19,0.073-0.443,0.076-0.699
					c-0.67-14.146-17.598-22.253-36.671-22.421c-19.077,0.168-35.997,8.275-36.682,22.421c0.018,0.256,0.077,0.509,0.091,0.761
					c0.564,25.338,16.712,45.673,36.587,45.673c10.883,0,20.637-6.131,27.337-15.804c2.386,2.727,5.848,4.472,9.757,4.472
					c7.215,0,13.069-8.311,13.069-15.565c0-7.243-5.852-13.132-13.065-13.132C381.914,145.471,381.506,145.565,381.076,145.605z
					 M368.955,148.846c-5.855,3.348-14.385,5.577-23.854,5.566c-9.48,0.015-18.013-2.219-23.875-5.566
					c-5.942-3.394-8.745-7.555-8.693-11.237c-0.055-3.715,2.762-7.873,8.693-11.262c5.862-3.356,14.395-5.578,23.875-5.563
					c9.469-0.018,17.999,2.207,23.854,5.563c5.942,3.393,8.758,7.547,8.704,11.262C377.713,141.291,374.897,145.452,368.955,148.846
					L368.955,148.846z M382.355,167.05c-2.77-0.004-4.999-1.929-5.677-4.491c0.944-2.061,1.778-6.664,2.489-8.904
					c0.939-0.604,1.985-1.051,3.188-1.064c3.293,0.014,5.972,2.704,5.979,6.013C388.323,161.918,385.648,167.046,382.355,167.05z
					 M365.975,127.397c-5.123-2.928-12.588-4.872-20.877-4.864c-8.296-0.007-15.769,1.936-20.899,4.864
					c-5.188,2.972-7.655,6.613-7.611,9.864c-0.04,3.224,2.412,6.866,7.611,9.838c0,0,7.254-15.255,18.902-3.767
					c11.645,11.489,5.735-12.147,15.073-3.001c9.338,9.143,15.423-3.071,15.423-3.071
					C373.645,134.007,371.182,130.369,365.975,127.397z M336.251,100.343c0.466,0.38,0.955,0.659,1.403,0.952
					c0.871,0.578,1.836,1.142,2.488,1.837c0.339,0.344,0.62,0.732,0.868,1.087c0.244,0.362,0.452,0.706,0.583,1.065
					c0.259,0.703,0.215,1.373,0.077,2.141c-0.266,1.566-1.221,3.316-2.161,5.237l0.157,0.187c1.064-0.377,1.957-1.018,2.758-1.804
					c0.787-0.798,1.465-1.782,1.808-3.023c0.353-1.211,0.131-2.723-0.576-3.825c-0.678-1.142-1.742-1.812-2.776-2.203
					c-0.521-0.216-1.053-0.366-1.498-0.553c-0.459-0.197-0.885-0.457-1.25-0.787c-0.747-0.641-1.083-1.688-0.995-2.292
					c0.029-0.304,0.084-0.556,0.186-0.893c0.113-0.319,0.302-0.681,0.546-1.047c0.478-0.743,1.123-1.504,1.771-2.386l-0.109-0.22
					c-0.576,0.033-1.115,0.187-1.625,0.406c-0.521,0.212-1.005,0.512-1.454,0.896c-0.448,0.392-0.864,0.878-1.151,1.501
					c-0.292,0.615-0.404,1.413-0.182,2.115C335.336,99.438,335.785,99.969,336.251,100.343z M345.881,104.855
					c0.361,0.245,0.707,0.399,1.009,0.582c0.59,0.355,1.224,0.769,1.57,1.281c0.372,0.52,0.594,1.018,0.707,1.38
					c0.087,0.392,0.015,0.677-0.033,1.102c-0.051,0.41-0.193,0.934-0.368,1.516c-0.182,0.589-0.416,1.208-0.616,1.951l0.16,0.183
					c0.791-0.143,1.446-0.516,2.037-1.006c0.583-0.498,1.089-1.167,1.344-2.046c0.266-0.871,0.084-1.999-0.459-2.782
					c-0.506-0.819-1.3-1.244-2.037-1.442c-0.368-0.11-0.743-0.183-1.031-0.286c-0.299-0.106-0.572-0.267-0.791-0.49
					c-0.474-0.428-0.532-1.201-0.375-1.438c0.062-0.128,0.087-0.201,0.116-0.366c0.047-0.161,0.131-0.369,0.245-0.604
					c0.24-0.483,0.586-1.025,0.921-1.738l-0.109-0.22c-0.419-0.059-0.801,0.003-1.173,0.113c-0.379,0.103-0.729,0.286-1.053,0.542
					c-0.328,0.256-0.634,0.593-0.849,1.051c-0.226,0.439-0.306,1.054-0.121,1.584C345.167,104.259,345.531,104.621,345.881,104.855z
					"/>
			</g>
		</g>
	</g>
</g>
</svg>
